src/browser/themes/shared/zen-icons/nucleo/media-mute.svg

#filter dumbComments emptyLines substitution
# This Source Code Form is subject to the terms of the Mozilla Public
# License, v. 2.0. If a copy of the MPL was not distributed with this
# file, You can obtain one at http://mozilla.org/MPL/2.0/.
<svg xmlns="http://www.w3.org/2000/svg" xmlns:xlink="http://www.w3.org/1999/xlink" x="0px" y="0px" width="18px" height="18px" viewBox="0 0 18 18"><path d="M3.75,13h1.853L14.5,4.422v-1.758c0-.457-.249-.877-.65-1.097-.4-.219-.887-.203-1.273,.044l-5.296,3.389H3.75c-1.24,0-2.25,1.009-2.25,2.25v3.5c0,1.241,1.01,2.25,2.25,2.25Z" fill="context-fill" fill-opacity="context-fill-opacity"></path><path d="M8.22,13.601l4.356,2.788c.205,.131,.439,.198,.674,.198,.206,0,.412-.051,.6-.153,.401-.219,.65-.64,.65-1.097V7.545l-6.28,6.056Z" fill="context-fill" fill-opacity="context-fill-opacity"></path><path d="M2.75,16.5c-.196,0-.393-.077-.54-.229-.287-.298-.278-.773,.02-1.061L16.229,1.71c.299-.286,.773-.279,1.061,.02,.287,.298,.278,.773-.02,1.061L3.271,16.29c-.146,.14-.333,.21-.521,.21Z" fill="context-fill" fill-opacity="context-fill-opacity" data-color="color-2"></path></svg>

#filter dumbComments emptyLines substitution
# This Source Code Form is subject to the terms of the Mozilla Public
# License, v. 2.0. If a copy of the MPL was not distributed with this
# file, You can obtain one at http://mozilla.org/MPL/2.0/.
<svg fill="context-fill" fill-opacity="context-fill-opacity" width="18px" height="18px" viewBox="0 0 18 18" xmlns="http://www.w3.org/2000/svg" xmlns:svg="http://www.w3.org/2000/svg"><path d="M 2.75,16.5 C 2.554,16.5 2.357,16.423 2.21,16.271 1.923,15.973 1.932,15.498 2.23,15.21 L 16.229,1.71 c 0.299,-0.286 0.773,-0.279 1.061,0.02 0.287,0.298 0.278,0.773 -0.02,1.061 L 3.271,16.29 C 3.125,16.43 2.938,16.5 2.75,16.5 Z m 5.47,-2.899 4.356,2.788 c 0.205,0.131 0.439,0.198 0.674,0.198 0.206,0 0.412,-0.051 0.6,-0.153 0.401,-0.219 0.65,-0.64 0.65,-1.097 V 7.545 Z M 3.75,13 H 5.603 L 14.5,4.422 V 2.664 C 14.5,2.207 14.251,1.787 13.85,1.567 13.45,1.348 12.963,1.364 12.577,1.611 L 7.281,5 H 3.75 C 2.51,5 1.5,6.009 1.5,7.25 v 3.5 C 1.5,11.991 2.51,13 3.75,13 Z"/></svg>
